static/img/kroki/17dd5d96b480c67d3e968bebd6262b4f.svg

<?xml version="1.0" encoding="us-ascii" standalone="no"?><svg xmlns="http://www.w3.org/2000/svg" xmlns:xlink="http://www.w3.org/1999/xlink" contentStyleType="text/css" height="645px" preserveAspectRatio="none" style="width:518px;height:645px;" version="1.1" viewBox="0 0 518 645" width="518px" zoomAndPan="magnify"><defs/><g><!--class aws_iam_policy--><g id="elem_aws_iam_policy"><rect codeLine="23" fill="#3D176E" height="39.7891" id="aws_iam_policy" rx="2.5" ry="2.5" style="stroke:#000D19;stroke-width:0.5;" width="173" x="7" y="599.55"/><ellipse cx="22" cy="619.4445" fill="#ADD1B2" rx="11" ry="11" style="stroke:#181818;stroke-width:1.0;"/><path d="M24.9688,625.0852 Q24.3906,625.382 23.75,625.5227 Q23.1094,625.6789 22.4063,625.6789 Q19.9063,625.6789 18.5781,624.0383 Q17.2656,622.382 17.2656,619.257 Q17.2656,616.132 18.5781,614.4758 Q19.9063,612.8195 22.4063,612.8195 Q23.1094,612.8195 23.75,612.9758 Q24.4063,613.132 24.9688,613.4289 L24.9688,616.1477 Q24.3438,615.5695 23.75,615.3039 Q23.1563,615.0227 22.5313,615.0227 Q21.1875,615.0227 20.5,616.1008 Q19.8125,617.1633 19.8125,619.257 Q19.8125,621.3508 20.5,622.4289 Q21.1875,623.4914 22.5313,623.4914 Q23.1563,623.4914 23.75,623.2258 Q24.3438,622.9445 24.9688,622.3664 L24.9688,625.0852 Z " fill="#000000"/><text fill="#D9B8FF" font-family="Helvetica" font-size="17" lengthAdjust="spacing" textLength="131" x="41" y="625.3298">aws_iam_policy</text></g><!--class azure_network_firewall_policy--><g id="elem_azure_network_firewall_policy"><rect codeLine="26" fill="#3D176E" height="39.7891" id="azure_network_firewall_policy" rx="2.5" ry="2.5" style="stroke:#000D19;stroke-width:0.5;" width="296" x="215.5" y="599.55"/><ellipse cx="230.5" cy="619.4445" fill="#ADD1B2" rx="11" ry="11" style="stroke:#181818;stroke-width:1.0;"/><path d="M233.4688,625.0852 Q232.8906,625.382 232.25,625.5227 Q231.6094,625.6789 230.9063,625.6789 Q228.4063,625.6789 227.0781,624.0383 Q225.7656,622.382 225.7656,619.257 Q225.7656,616.132 227.0781,614.4758 Q228.4063,612.8195 230.9063,612.8195 Q231.6094,612.8195 232.25,612.9758 Q232.9063,613.132 233.4688,613.4289 L233.4688,616.1477 Q232.8438,615.5695 232.25,615.3039 Q231.6563,615.0227 231.0313,615.0227 Q229.6875,615.0227 229,616.1008 Q228.3125,617.1633 228.3125,619.257 Q228.3125,621.3508 229,622.4289 Q229.6875,623.4914 231.0313,623.4914 Q231.6563,623.4914 232.25,623.2258 Q232.8438,622.9445 233.4688,622.3664 L233.4688,625.0852 Z " fill="#000000"/><text fill="#D9B8FF" font-family="Helvetica" font-size="17" lengthAdjust="spacing" textLength="254" x="249.5" y="625.3298">azure_network_firewall_policy</text></g><!--class policy--><g id="elem_policy"><rect codeLine="29" fill="#3D176E" height="39.7891" id="policy" rx="2.5" ry="2.5" style="stroke:#000D19;stroke-width:0.5;" width="90" x="183.5" y="438.76"/><ellipse cx="198.5" cy="458.6545" fill="#ADD1B2" rx="11" ry="11" style="stroke:#181818;stroke-width:1.0;"/><path d="M201.4688,464.2952 Q200.8906,464.592 200.25,464.7327 Q199.6094,464.8889 198.9063,464.8889 Q196.4063,464.8889 195.0781,463.2483 Q193.7656,461.592 193.7656,458.467 Q193.7656,455.342 195.0781,453.6858 Q196.4063,452.0295 198.9063,452.0295 Q199.6094,452.0295 200.25,452.1858 Q200.9063,452.342 201.4688,452.6389 L201.4688,455.3577 Q200.8438,454.7795 200.25,454.5139 Q199.6563,454.2327 199.0313,454.2327 Q197.6875,454.2327 197,455.3108 Q196.3125,456.3733 196.3125,458.467 Q196.3125,460.5608 197,461.6389 Q197.6875,462.7014 199.0313,462.7014 Q199.6563,462.7014 200.25,462.4358 Q200.8438,462.1545 201.4688,461.5764 L201.4688,464.2952 Z " fill="#000000"/><text fill="#D9B8FF" font-family="Helvetica" font-size="17" lengthAdjust="spacing" textLength="48" x="217.5" y="464.5398">policy</text></g><!--class resource--><g id="elem_resource"><rect codeLine="32" fill="#3D176E" height="310.7578" id="resource" rx="2.5" ry="2.5" style="stroke:#000D19;stroke-width:0.5;" width="227" x="115" y="7"/><ellipse cx="183.75" cy="26.8945" fill="#ADD1B2" rx="11" ry="11" style="stroke:#181818;stroke-width:1.0;"/><path d="M186.7188,32.5352 Q186.1406,32.832 185.5,32.9727 Q184.8594,33.1289 184.1563,33.1289 Q181.6563,33.1289 180.3281,31.4883 Q179.0156,29.832 179.0156,26.707 Q179.0156,23.582 180.3281,21.9258 Q181.6563,20.2695 184.1563,20.2695 Q184.8594,20.2695 185.5,20.4258 Q186.1563,20.582 186.7188,20.8789 L186.7188,23.5977 Q186.0938,23.0195 185.5,22.7539 Q184.9063,22.4727 184.2813,22.4727 Q182.9375,22.4727 182.25,23.5508 Q181.5625,24.6133 181.5625,26.707 Q181.5625,28.8008 182.25,29.8789 Q182.9375,30.9414 184.2813,30.9414 Q184.9063,30.9414 185.5,30.6758 Q186.0938,30.3945 186.7188,29.8164 L186.7188,32.5352 Z " fill="#000000"/><text fill="#D9B8FF" font-family="Helvetica" font-size="17" lengthAdjust="spacing" textLength="71" x="209.25" y="32.7798">resource</text><line style="stroke:#000D19;stroke-width:0.5;" x1="116" x2="341" y1="46.7891" y2="46.7891"/><text fill="#D9B8FF" font-family="sans-serif" font-size="14" font-weight="bold" lengthAdjust="spacing" textLength="29" x="126" y="68.7842">age</text><text fill="#D9B8FF" font-family="sans-serif" font-size="14" lengthAdjust="spacing" textLength="66" x="155" y="68.7842">: duration</text><text fill="#D9B8FF" font-family="sans-serif" font-size="14" font-weight="bold" lengthAdjust="spacing" textLength="43" x="126" y="95.0811">atime</text><text fill="#D9B8FF" font-family="sans-serif" font-size="14" lengthAdjust="spacing" textLength="70" x="169" y="95.0811">: datetime</text><text fill="#D9B8FF" font-family="sans-serif" font-size="14" font-weight="bold" lengthAdjust="spacing" textLength="43" x="126" y="121.3779">ctime</text><text fill="#D9B8FF" font-family="sans-serif" font-size="14" lengthAdjust="spacing" textLength="70" x="169" y="121.3779">: datetime</text><text fill="#D9B8FF" font-family="sans-serif" font-size="14" font-weight="bold" lengthAdjust="spacing" textLength="14" x="126" y="147.6748">id</text><text fill="#D9B8FF" font-family="sans-serif" font-size="14" lengthAdjust="spacing" textLength="48" x="140" y="147.6748">: string</text><text fill="#D9B8FF" font-family="sans-serif" font-size="14" font-weight="bold" lengthAdjust="spacing" textLength="33" x="126" y="173.9717">kind</text><text fill="#D9B8FF" font-family="sans-serif" font-size="14" lengthAdjust="spacing" textLength="48" x="159" y="173.9717">: string</text><text fill="#D9B8FF" font-family="sans-serif" font-size="14" font-weight="bold" lengthAdjust="spacing" textLength="90" x="126" y="200.2686">last_access</text><text fill="#D9B8FF" font-family="sans-serif" font-size="14" lengthAdjust="spacing" textLength="66" x="216" y="200.2686">: duration</text><text fill="#D9B8FF" font-family="sans-serif" font-size="14" font-weight="bold" lengthAdjust="spacing" textLength="90" x="126" y="226.5654">last_update</text><text fill="#D9B8FF" font-family="sans-serif" font-size="14" lengthAdjust="spacing" textLength="66" x="216" y="226.5654">: duration</text><text fill="#D9B8FF" font-family="sans-serif" font-size="14" font-weight="bold" lengthAdjust="spacing" textLength="48" x="126" y="252.8623">mtime</text><text fill="#D9B8FF" font-family="sans-serif" font-size="14" lengthAdjust="spacing" textLength="70" x="174" y="252.8623">: datetime</text><text fill="#D9B8FF" font-family="sans-serif" font-size="14" font-weight="bold" lengthAdjust="spacing" textLength="43" x="126" y="279.1592">name</text><text fill="#D9B8FF" font-family="sans-serif" font-size="14" lengthAdjust="spacing" textLength="48" x="169" y="279.1592">: string</text><text fill="#D9B8FF" font-family="sans-serif" font-size="14" font-weight="bold" lengthAdjust="spacing" textLength="34" x="126" y="305.4561">tags</text><text fill="#D9B8FF" font-family="sans-serif" font-size="14" lengthAdjust="spacing" textLength="171" x="160" y="305.4561">: dictionary[string, string]</text></g><!--reverse link policy to aws_iam_policy--><g id="link_policy_aws_iam_policy"><path codeLine="44" d="M200.5602,492.5231 C174.6102,523.0431 135.83,568.66 109.84,599.22 " fill="none" id="policy-backto-aws_iam_policy" style="stroke:#FFAF37;stroke-width:2.0;"/><polygon fill="none" points="212.22,478.81,195.9892,488.6365,205.1313,496.4097,212.22,478.81" style="stroke:#FFAF37;stroke-width:2.0;"/></g><!--reverse link policy to azure_network_firewall_policy--><g id="link_policy_azure_network_firewall_policy"><path codeLine="45" d="M256.4398,492.5231 C282.3898,523.0431 321.17,568.66 347.16,599.22 " fill="none" id="policy-backto-azure_network_firewall_policy" style="stroke:#FFAF37;stroke-width:2.0;"/><polygon fill="none" points="244.78,478.81,251.8687,496.4097,261.0108,488.6365,244.78,478.81" style="stroke:#FFAF37;stroke-width:2.0;"/></g><!--reverse link resource to policy--><g id="link_resource_policy"><path codeLine="46" d="M228.5,335.85 C228.5,384.14 228.5,413.37 228.5,438.68 " fill="none" id="resource-backto-policy" style="stroke:#FFAF37;stroke-width:2.0;"/><polygon fill="none" points="228.5,317.85,222.5,335.85,234.5,335.85,228.5,317.85" style="stroke:#FFAF37;stroke-width:2.0;"/></g><!--SRC=[XP9FJy904CNl_HIRS2EIW4G1umL9Z5wC4M_6DCFkj6neTvlPgGt- -UvkAPAwHRorx_qwyzwaQwrGO5xmLkIOhv1Sv3RQ542GYpcHhHOsioHwIGB9U1AQjzRmly03v2ZkC7j3rX92udcjvSQWS-AyPTs0tAHaIwEQyKnWdBVGS8jQPE3Sd9dqgcHiXL6prJH9GZ8SsXkhqUGIEvWbXRH7XiEX6ir2vDzL9tiVYAL-Hp5g7-t1CdPYTbRig9CfQw8LibFqn_ypuoCefKqgBbhQKvE93D8lVRa6PQkQJY1pxJMEaT3oji15fnNEfYgP78Nl_u8ZMPzEGELY3NbSs4pBhVY8egyVvxqaZ0roPMaJ9vgmWYmx0dOLGcTBakYrVXzIxFUlX2e9M5jJAwppHWF6-jbhyeYcLIqu_q-QrB_wThy5lujZaDB_yS66dLCMzQp0oO_iCT18Xy4CQJDHo_epeErBuvtjcLTVTL_x-dCm60Hd3BnJXumEjshWlVeD]--></g></svg>

<svg xmlns="http://www.w3.org/2000/svg" width="518" height="645" viewBox="0 0 518 645"><rect width="173" height="39.789" x="7" y="599.55" fill="#3D176E" rx="2.5" ry="2.5" style="stroke:#000d19;stroke-width:.5"/><circle cx="22" cy="619.444" r="11" fill="#ADD1B2" style="stroke:#181818;stroke-width:1"/><path d="M24.969 625.085q-.578.297-1.219.438-.64.156-1.344.156-2.5 0-3.828-1.64-1.312-1.657-1.312-4.782t1.312-4.781q1.328-1.657 3.828-1.657.703 0 1.344.157.656.156 1.219.453v2.719q-.625-.579-1.219-.844-.594-.281-1.219-.281-1.343 0-2.031 1.078-.687 1.062-.687 3.156t.687 3.172q.688 1.062 2.031 1.062.625 0 1.219-.265.594-.282 1.219-.86z"/><text x="41" y="625.33" fill="#D9B8FF" font-family="Helvetica" font-size="17" textLength="131">aws_iam_policy</text><rect width="296" height="39.789" x="215.5" y="599.55" fill="#3D176E" rx="2.5" ry="2.5" style="stroke:#000d19;stroke-width:.5"/><circle cx="230.5" cy="619.444" r="11" fill="#ADD1B2" style="stroke:#181818;stroke-width:1"/><path d="M233.469 625.085q-.578.297-1.219.438-.64.156-1.344.156-2.5 0-3.828-1.64-1.312-1.657-1.312-4.782t1.312-4.781q1.328-1.657 3.828-1.657.703 0 1.344.157.656.156 1.219.453v2.719q-.625-.579-1.219-.844-.594-.281-1.219-.281-1.344 0-2.031 1.078-.687 1.062-.687 3.156t.687 3.172q.688 1.062 2.031 1.062.625 0 1.219-.265.594-.282 1.219-.86z"/><text x="249.5" y="625.33" fill="#D9B8FF" font-family="Helvetica" font-size="17" textLength="254">azure_network_firewall_policy</text><rect width="90" height="39.789" x="183.5" y="438.76" fill="#3D176E" rx="2.5" ry="2.5" style="stroke:#000d19;stroke-width:.5"/><circle cx="198.5" cy="458.654" r="11" fill="#ADD1B2" style="stroke:#181818;stroke-width:1"/><path d="M201.469 464.295q-.578.297-1.219.438-.64.156-1.344.156-2.5 0-3.828-1.64-1.312-1.657-1.312-4.782t1.312-4.781q1.328-1.656 3.828-1.656.703 0 1.344.156.656.156 1.219.453v2.719q-.625-.579-1.219-.844-.594-.281-1.219-.281-1.344 0-2.031 1.078-.687 1.062-.687 3.156t.687 3.172q.688 1.062 2.031 1.062.625 0 1.219-.265.594-.281 1.219-.86z"/><text x="217.5" y="464.54" fill="#D9B8FF" font-family="Helvetica" font-size="17" textLength="48">policy</text><rect width="227" height="310.758" x="115" y="7" fill="#3D176E" rx="2.5" ry="2.5" style="stroke:#000d19;stroke-width:.5"/><circle cx="183.75" cy="26.895" r="11" fill="#ADD1B2" style="stroke:#181818;stroke-width:1"/><path d="M186.719 32.535q-.578.297-1.219.438-.64.156-1.344.156-2.5 0-3.828-1.64-1.312-1.657-1.312-4.782t1.312-4.781q1.328-1.656 3.828-1.656.703 0 1.344.156.656.156 1.219.453v2.719q-.625-.578-1.219-.844-.594-.281-1.219-.281-1.344 0-2.031 1.078-.687 1.062-.687 3.156t.687 3.172q.688 1.062 2.031 1.062.625 0 1.219-.265.594-.281 1.219-.86z"/><text x="209.25" y="32.78" fill="#D9B8FF" font-family="Helvetica" font-size="17" textLength="71">resource</text><path d="M116 46.789h225" style="stroke:#000d19;stroke-width:.5"/><text x="126" y="68.784" fill="#D9B8FF" font-family="sans-serif" font-size="14" font-weight="bold" textLength="29">age</text><text x="155" y="68.784" fill="#D9B8FF" font-family="sans-serif" font-size="14" textLength="66">: duration</text><text x="126" y="95.081" fill="#D9B8FF" font-family="sans-serif" font-size="14" font-weight="bold" textLength="43">atime</text><text x="169" y="95.081" fill="#D9B8FF" font-family="sans-serif" font-size="14" textLength="70">: datetime</text><text x="126" y="121.378" fill="#D9B8FF" font-family="sans-serif" font-size="14" font-weight="bold" textLength="43">ctime</text><text x="169" y="121.378" fill="#D9B8FF" font-family="sans-serif" font-size="14" textLength="70">: datetime</text><text x="126" y="147.675" fill="#D9B8FF" font-family="sans-serif" font-size="14" font-weight="bold" textLength="14">id</text><text x="140" y="147.675" fill="#D9B8FF" font-family="sans-serif" font-size="14" textLength="48">: string</text><text x="126" y="173.972" fill="#D9B8FF" font-family="sans-serif" font-size="14" font-weight="bold" textLength="33">kind</text><text x="159" y="173.972" fill="#D9B8FF" font-family="sans-serif" font-size="14" textLength="48">: string</text><text x="126" y="200.269" fill="#D9B8FF" font-family="sans-serif" font-size="14" font-weight="bold" textLength="90">last_access</text><text x="216" y="200.269" fill="#D9B8FF" font-family="sans-serif" font-size="14" textLength="66">: duration</text><text x="126" y="226.565" fill="#D9B8FF" font-family="sans-serif" font-size="14" font-weight="bold" textLength="90">last_update</text><text x="216" y="226.565" fill="#D9B8FF" font-family="sans-serif" font-size="14" textLength="66">: duration</text><text x="126" y="252.862" fill="#D9B8FF" font-family="sans-serif" font-size="14" font-weight="bold" textLength="48">mtime</text><text x="174" y="252.862" fill="#D9B8FF" font-family="sans-serif" font-size="14" textLength="70">: datetime</text><text x="126" y="279.159" fill="#D9B8FF" font-family="sans-serif" font-size="14" font-weight="bold" textLength="43">name</text><text x="169" y="279.159" fill="#D9B8FF" font-family="sans-serif" font-size="14" textLength="48">: string</text><text x="126" y="305.456" fill="#D9B8FF" font-family="sans-serif" font-size="14" font-weight="bold" textLength="34">tags</text><text x="160" y="305.456" fill="#D9B8FF" font-family="sans-serif" font-size="14" textLength="171">: dictionary[string, string]</text><g fill="none"><path d="M200.56 492.523c-25.95 30.52-64.73 76.137-90.72 106.697" style="stroke:#ffaf37;stroke-width:2"/><path d="m212.22 478.81-16.23 9.827 9.141 7.773z" style="stroke:#ffaf37;stroke-width:2"/></g><g fill="none"><path d="M256.44 492.523c25.95 30.52 64.73 76.137 90.72 106.697" style="stroke:#ffaf37;stroke-width:2"/><path d="m244.78 478.81 7.089 17.6 9.142-7.774z" style="stroke:#ffaf37;stroke-width:2"/></g><path fill="none" d="M228.5 335.85v102.83m0-120.83-6 18h12z" style="stroke:#ffaf37;stroke-width:2"/></svg>
